src/main/resources/cards/fronts/diamonds_2.svg

<?xml version="1.0" encoding="UTF-8" standalone="no"?>
<!-- Created with Inkscape (http://www.inkscape.org/) -->

<svg
   xmlns:dc="http://purl.org/dc/elements/1.1/"
   xmlns:cc="http://creativecommons.org/ns#"
   xmlns:rdf="http://www.w3.org/1999/02/22-rdf-syntax-ns#"
   xmlns:svg="http://www.w3.org/2000/svg"
   xmlns="http://www.w3.org/2000/svg"
   xmlns:sodipodi="http://sodipodi.sourceforge.net/DTD/sodipodi-0.dtd"
   xmlns:inkscape="http://www.inkscape.org/namespaces/inkscape"
   width="234"
   height="333.00003"
   id="svg2"
   version="1.1"
   inkscape:version="0.92.4 (5da689c313, 2019-01-14)"
   sodipodi:docname="diamonds_2.svg"
   inkscape:export-filename="C:\Users\fowle\OneDrive\Projects\Playing-Cards\fronts\png-096-dpi\diamonds_2.png"
   inkscape:export-xdpi="96"
   inkscape:export-ydpi="96">
  <title
     id="title888">Two of Diamonds Playing Card</title>
  <defs
     id="defs4" />
  <sodipodi:namedview
     id="base"
     pagecolor="#ffffff"
     bordercolor="#666666"
     borderopacity="1.0"
     inkscape:pageopacity="0.0"
     inkscape:pageshadow="2"
     inkscape:zoom="1.549743"
     inkscape:cx="114.81358"
     inkscape:cy="191.22405"
     inkscape:document-units="px"
     inkscape:current-layer="layer1"
     showgrid="false"
     inkscape:showpageshadow="false"
     showguides="true"
     inkscape:guide-bbox="true"
     inkscape:snap-global="true"
     inkscape:window-width="1456"
     inkscape:window-height="976"
     inkscape:window-x="598"
     inkscape:window-y="28"
     inkscape:window-maximized="0"
     showborder="false"
     fit-margin-top="0"
     fit-margin-left="0"
     fit-margin-right="0"
     fit-margin-bottom="0">
    <inkscape:grid
       type="xygrid"
       id="grid3767"
       empspacing="5"
       visible="true"
       enabled="true"
       snapvisiblegridlinesonly="true"
       originx="0"
       originy="5.1666068e-06" />
  </sodipodi:namedview>
  <metadata
     id="metadata7">
    <rdf:RDF>
      <cc:Work
         rdf:about="">
        <dc:format>image/svg+xml</dc:format>
        <dc:type
           rdf:resource="http://purl.org/dc/dcmitype/StillImage" />
        <dc:title>Two of Diamonds Playing Card</dc:title>
        <dc:date>2020-05-05</dc:date>
        <dc:creator>
          <cc:Agent>
            <dc:title>Daniel S. Fowler</dc:title>
          </cc:Agent>
        </dc:creator>
        <dc:rights>
          <cc:Agent>
            <dc:title>Public Domain</dc:title>
          </cc:Agent>
        </dc:rights>
        <dc:publisher>
          <cc:Agent>
            <dc:title>https://tekeye.uk</dc:title>
          </cc:Agent>
        </dc:publisher>
        <dc:language>en-GB</dc:language>
        <dc:subject>
          <rdf:Bag>
            <rdf:li>two; diamonds; playing; card; white; red;</rdf:li>
          </rdf:Bag>
        </dc:subject>
        <dc:description>A two of diamonds playing card.</dc:description>
        <cc:license
           rdf:resource="http://creativecommons.org/publicdomain/zero/1.0/" />
      </cc:Work>
      <cc:License
         rdf:about="http://creativecommons.org/publicdomain/zero/1.0/">
        <cc:permits
           rdf:resource="http://creativecommons.org/ns#Reproduction" />
        <cc:permits
           rdf:resource="http://creativecommons.org/ns#Distribution" />
        <cc:permits
           rdf:resource="http://creativecommons.org/ns#DerivativeWorks" />
      </cc:License>
    </rdf:RDF>
  </metadata>
  <g
     inkscape:label="Layer 1"
     inkscape:groupmode="layer"
     id="layer1"
     transform="translate(0,-719.36216)">
    <g
       id="g908">
      <rect
         rx="8.9191856"
         ry="8.9457436"
         y="719.74011"
         x="0.37795275"
         height="332.24411"
         width="233.24409"
         id="rect4266"
         style="fill:#ffffff;fill-opacity:1;stroke:#808080;stroke-width:0.75590551;stroke-linecap:butt;stroke-linejoin:miter;stroke-miterlimit:4;stroke-dasharray:none;stroke-opacity:1" />
      <g
         transform="matrix(0.07348588,0,0,0.07370838,-248.01731,933.60062)"
         id="g4233"
         style="fill:none;stroke:#000000;stroke-width:3.18132639;stroke-opacity:1" />
      <g
         clip-path="none"
         style="fill:none;stroke:#000000;stroke-width:3.18132639;stroke-opacity:1"
         id="g4211"
         transform="matrix(0.07348588,0,0,0.07370838,-248.01728,933.60062)" />
      <g
         transform="matrix(0.07348588,0,0,0.07370838,-248.01731,933.60062)"
         id="g4227"
         style="fill:none;stroke:#000000;stroke-width:3.18132639;stroke-opacity:1" />
      <path
         inkscape:export-ydpi="95.969437"
         inkscape:export-xdpi="95.969437"
         inkscape:export-filename="D:\DAN\Documents\Projects\Playing Cards\test.png"
         inkscape:connector-curvature="0"
         id="path4884-1"
         d="M 117,814.07624 145.24371,785.73971 117,757.40317 88.756294,785.73971 Z"
         style="fill:#ff0000;fill-opacity:1;stroke:none;stroke-width:1" />
      <path
         inkscape:export-ydpi="95.969437"
         inkscape:export-xdpi="95.969437"
         inkscape:export-filename="D:\DAN\Documents\Projects\Playing Cards\test.png"
         inkscape:connector-curvature="0"
         id="path4884-1-4"
         d="M 117,1014.3212 145.24371,985.98462 117,957.64809 88.756294,985.98462 Z"
         style="fill:#ff0000;fill-opacity:1;stroke:none;stroke-width:1" />
      <path
         inkscape:connector-curvature="0"
         id="path4884-1-4-5-3"
         d="m 17.205569,780.7021 9.414569,-9.44551 -9.414569,-9.44552 -9.4145688,9.44552 z"
         style="fill:#ff0000;fill-opacity:1;stroke:none;stroke-width:1" />
      <path
         inkscape:connector-curvature="0"
         id="path4884-1-4-5-3-5"
         d="m 216.79443,991.02224 9.41457,9.44556 -9.41457,9.4455 -9.41457,-9.4455 z"
         style="fill:#ff0000;fill-opacity:1;stroke:none;stroke-width:1" />
      <g
         id="text3755-0"
         style="font-style:normal;font-variant:normal;font-weight:bold;font-stretch:normal;font-size:3.77201176px;line-height:0%;font-family:'Levenim MT';-inkscape-font-specification:'Sans Bold';letter-spacing:0px;word-spacing:0px;fill:#ff0000;fill-opacity:1;stroke:none;stroke-width:1"
         transform="scale(0.98105485,1.019311)"
         aria-label="2">
        <path
           id="path890"
           style="fill:#ff0000;font-size:39.34609222px;line-height:1.25;stroke-width:1"
           d="m 26.999715,735.55243 -0.710843,5.64831 H 7.9414512 q 0.4226631,-4.86062 3.9192398,-8.58774 l 6.224675,-5.3025 q 3.246821,-2.80495 3.246821,-5.62911 0,-1.88277 -1.07587,-2.99706 -1.056658,-1.13351 -2.920218,-1.13351 -2.151739,0 -3.208397,1.15272 -0.691631,0.76848 -1.056658,2.36307 -0.365027,1.69065 -0.576359,1.95962 -0.307391,0.0961 -0.710842,0.0961 H 9.3631362 q -0.4226631,0 -0.7300545,-0.17291 -0.1344837,-0.40345 -0.1344837,-0.90296 0,-4.0153 2.632038,-6.37837 2.516767,-2.26701 6.551278,-2.26701 3.746332,0 6.128615,1.99804 2.535979,2.11332 2.535979,5.80202 0,3.63106 -2.804946,6.64733 -0.97981,1.07587 -5.571468,4.59166 -3.342881,2.59362 -4.111359,4.66851 h 8.952773 l 0.153695,-1.72908 q 0.211332,-0.92217 1.133506,-0.92217 h 1.921196 q 1.114293,0 0.97981,1.09508 z" />
      </g>
      <g
         id="text3755-2-2"
         style="fill:#ff0000;font-style:normal;font-variant:normal;font-weight:bold;font-stretch:normal;font-size:3.77201176px;line-height:0%;font-family:'Levenim MT';-inkscape-font-specification:'Sans Bold';letter-spacing:0px;word-spacing:0px;fill:#ff0000;fill-opacity:1;stroke:none;stroke-width:1"
         transform="scale(-0.98105494,-1.0193109)"
         aria-label="2">
        <path
           id="path893"
           style="font-size:39.34609222px;line-height:1.25;stroke-width:1"
           d="m -211.51903,-1002.6064 -0.71084,5.64833 h -18.34742 q 0.42266,-4.86063 3.91924,-8.58773 l 6.22467,-5.3025 q 3.24682,-2.805 3.24682,-5.6291 0,-1.8828 -1.07587,-2.9971 -1.05665,-1.1335 -2.92021,-1.1335 -2.15174,0 -3.2084,1.1527 -0.69163,0.7685 -1.05666,2.3631 -0.36503,1.6907 -0.57636,1.9596 -0.30739,0.096 -0.71084,0.096 h -2.42071 q -0.42266,0 -0.73005,-0.1729 -0.13449,-0.4035 -0.13449,-0.903 0,-4.0153 2.63204,-6.3784 2.51677,-2.267 6.55128,-2.267 3.74633,0 6.12862,1.9981 2.53597,2.1133 2.53597,5.802 0,3.631 -2.80494,6.6473 -0.97981,1.0759 -5.57147,4.5917 -3.34288,2.5936 -4.11136,4.6685 h 8.95277 l 0.1537,-1.7291 q 0.21133,-0.9222 1.13351,-0.9222 h 1.92119 q 1.11429,0 0.97981,1.0951 z" />
      </g>
    </g>
  </g>
</svg>

<svg width="234" height="333.00003" xmlns="http://www.w3.org/2000/svg">
    <g id="layer1" transform="matrix(1 0 0 1 0 -719.3622)">
        <g id="g908">
            <path id="rect4266" fill="#ffffff" stroke="#808080" stroke-width="0.7559055" d="M 9.297138 719.7401 L 224.70288 719.7401 C 229.6288 719.7401 233.62206 723.74524 233.62206 728.68585 L 233.62206 1043.0385 C 233.62207 1045.411 232.68237 1047.6864 231.0097 1049.3641 C 229.33702 1051.0417 227.06839 1051.9843 224.70288 1051.9843 L 9.297138 1051.9843 C 6.9316134 1051.9843 4.662975 1051.0417 2.9903018 1049.3641 C 1.3176281 1047.6864 0.3779376 1045.411 0.37795275 1043.0385 L 0.37795275 728.68585 C 0.37795484 723.74524 4.3712096 719.7401 9.297138 719.7401 Z"/>
            <g id="g4233" transform="matrix(0.07348588 0 0 0.07370838 -248.0173 933.60065)"/>
            <g id="g4211" transform="matrix(0.07348588 0 0 0.07370838 -248.01726 933.60065)"/>
            <g id="g4227" transform="matrix(0.07348588 0 0 0.07370838 -248.0173 933.60065)"/>
            <path id="path4884-1" fill="#ff0000" stroke="none" d="M 117 814.07623 L 145.24371 785.7397 L 117 757.40326 L 88.756294 785.7397 Z"/>
            <path id="path4884-1-4" fill="#ff0000" stroke="none" d="M 117 1014.3212 L 145.24371 985.9846 L 117 957.6481 L 88.756294 985.9846 Z"/>
            <path id="path4884-1-4-5-3" fill="#ff0000" stroke="none" d="M 17.205568 780.7021 L 26.620136 771.2566 L 17.205568 761.8111 L 7.7910004 771.2566 Z"/>
            <path id="path4884-1-4-5-3-5" fill="#ff0000" stroke="none" d="M 216.79443 991.0222 L 226.209 1000.4677 L 216.79443 1009.9134 L 207.37987 1000.4677 Z"/>
            <g id="text3755-0" transform="matrix(0.9810549 0 0 1.019311 0 0)">
                <path id="path890" fill="#ff0000" stroke="none" d="M 26.999716 735.55237 L 26.288874 741.20074 L 7.941451 741.20074 Q 8.364115 736.34015 11.860691 732.6129 L 18.085365 727.3105 Q 21.332188 724.50555 21.332188 721.6814 Q 21.332188 719.7987 20.256317 718.6843 Q 19.19966 717.5509 17.3361 717.5509 Q 15.18436 717.5509 14.127702 718.70355 Q 13.436071 719.47205 13.071044 721.0665 Q 12.706016 722.7572 12.494685 723.02625 Q 12.187293 723.1223 11.783842 723.1223 L 9.363136 723.1223 Q 8.940474 723.1223 8.633081 722.9494 Q 8.498598 722.54596 8.498598 722.0465 Q 8.498598 718.0312 11.130637 715.6681 Q 13.647402 713.40106 17.681913 713.40106 Q 21.428246 713.40106 23.81053 715.3991 Q 26.346508 717.51245 26.346508 721.20105 Q 26.346508 724.83215 23.541561 727.84845 Q 22.56175 728.9243 17.970095 732.44006 Q 14.627213 735.03375 13.858735 737.10864 L 22.811506 737.10864 L 22.965202 735.3795 Q 23.176535 734.45734 24.09871 734.45734 L 26.019903 734.45734 Q 27.134197 734.45734 26.999716 735.5525 Z"/>
            </g>
            <g id="text3755-2-2" transform="matrix(-0.98105496 0 0 -1.019311 0 0)">
                <path id="path893" fill="#ff0000" stroke="none" d="M -211.51904 -1002.6063 L -212.22987 -996.95807 L -230.5773 -996.95807 Q -230.15463 -1001.81866 -226.65807 -1005.5458 L -220.43338 -1010.8483 Q -217.18655 -1013.6533 -217.18655 -1016.4775 Q -217.18655 -1018.3602 -218.26245 -1019.4745 Q -219.31908 -1020.6079 -221.18263 -1020.6079 Q -223.33438 -1020.6079 -224.39105 -1019.4553 Q -225.08267 -1018.6868 -225.4477 -1017.0923 Q -225.81273 -1015.4015 -226.02406 -1015.1326 Q -226.33144 -1015.0366 -226.7349 -1015.0366 L -229.15561 -1015.0366 Q -229.57828 -1015.0366 -229.88567 -1015.2095 Q -230.02016 -1015.613 -230.02016 -1016.1125 Q -230.02016 -1020.1278 -227.3881 -1022.49084 Q -224.87134 -1024.7579 -220.83682 -1024.7579 Q -217.0905 -1024.7579 -214.7082 -1022.7598 Q -212.17224 -1020.64655 -212.17224 -1016.9578 Q -212.17224 -1013.3268 -214.97717 -1010.3105 Q -215.95699 -1009.2347 -220.54865 -1005.7188 Q -223.89151 -1003.1251 -224.66 -1001.0503 L -215.70724 -1001.0503 L -215.55354 -1002.7794 Q -215.34221 -1003.7016 -214.42003 -1003.7016 L -212.49884 -1003.7016 Q -211.38455 -1003.7016 -211.51904 -1002.6065 Z"/>
            </g>
        </g>
    </g>
</svg>
